X:475
T: JUNGFER LIESCHEN SCHLIEF DA DROBEN
N: E1732A
O: Europa, Mitteleuropa, Deutschland, Hessen, Lahn - Kreis; Wetterau;
R: Scherz - Lied
M: 3/4
L: 1/8
K: G
GB | d2B2de | dcA2
d2 | B2B2dB | A4
BA | G2B2A2 | B2d2
ce | d2B2A2 | G4

